X: 242
T:Ave verum / O salutaris / Ecce panis / Bone
N: Derived from Jos2104-Ave_verum.krn
C: Josquin des Prez
%%abc-version 2.0
%%abcx-abcm2ps-target-version 5.9.1 (29 Sep 2008)
%%abc-creator hum2abc beta
%%abcx-conversion-date 2019/02/12 16:15:50
%%abc-edited-by Jesse Rodin
%%abc-edited-by Will Watson 13/10/2011
%%abcx-initial-encoding-date 2011/10/13/
%%humdrum-veritas 2415609552
%%humdrum-veritas-data 1660724780
%%linebreak <none>
%%barnumbers 0
L: 1/4
M: 2/1
Q: 1/2=120
%%staves [1 2 3 4]
V: 1 clef=treble
V: 2 clef=treble-8
V: 3 clef=treble-8
V: 4 clef=bass
K: F
[V:1] F6G2 | 
[V:2] z8 | 
[V:3] F8 | 
[V:4] z8 | 
[V:1] A4F4 | 
[V:2] z8 | 
[V:3] F8 | 
[V:4] z8 | 
[V:1] E3FG4- | 
[V:2] z8 | 
[V:3] G8- | 
[V:4] C,8 | 
[V:1] G2F4E2 | 
[V:2] c8 | 
[V:3] G8 | 
[V:4] C,8 | 
[V:1] F6B2- | 
[V:2] A4B4- | 
[V:3] F8 | 
[V:4] D,8 | 
[V:1] B2A4G2 | 
[V:2] B8 | 
[V:3] z8 | 
[V:4] D,6E,2 | 
[V:1] A8 | 
[V:2] A4F4- | 
[V:3] z4A4 | 
[V:4] F,6E,2 | 
[V:1] z8 | 
[V:2] F4G4 | 
[V:3] B4c4- | 
[V:4] D,4C,4- | 
[V:1] G6A2 | 
[V:2] E8 | 
[V:3] c8 | 
[V:4] C,8 | 
[V:1] B8 | 
[V:2] F8- | 
[V:3] d8- | 
[V:4] B,,8 | 
[V:1] A8- | 
[V:2] F8 | 
[V:3] d8 | 
[V:4] D,4D,3E, | 
[V:1] A4G4 | 
[V:2] z2F4E2 | 
[V:3] c4c4- | 
[V:4] F,4C,4 | 
[V:1] F6ED | 
[V:2] F8 | 
[V:3] c2=BA=B4 | 
[V:4] D,8 | 
[V:1] E2F4E2 | 
[V:2] G8 | 
[V:3] c8- | 
[V:4] C,8 | 
[V:1] F4z4 | 
[V:2] F8- | 
[V:3] c8- | 
[V:4] z8 | 
[V:1] F3GA2F2 | 
[V:2] F8 | 
[V:3] c8- | 
[V:4] z8 | 
[V:1] G6F2 | 
[V:2] z8 | 
[V:3] c8 | 
[V:4] C,4E,2F,2 | 
[V:1] B3AG4 | 
[V:2] z8 | 
[V:3] z4B4 | 
[V:4] G,8 | 
[V:1] A4z2A2 | 
[V:2] z2F2A4 | 
[V:3] c8 | 
[V:4] F,8 | 
[V:1] G4G4 | 
[V:2] c4c4 | 
[V:3] z8 | 
[V:4] E,8 | 
[V:1] F3EF4 | 
[V:2] z2d2B4 | 
[V:3] d8 | 
[V:4] D,8 | 
[V:1] G4G4 | 
[V:2] c4c4 | 
[V:3] _e8 | 
[V:4] C,8 | 
[V:1] F8- | 
[V:2] z8 | 
[V:3] d8 | 
[V:4] D,6E,2 | 
[V:1] F8- | 
[V:2] z8 | 
[V:3] c6d2 | 
[V:4] F,8 | 
[V:1] F8 | 
[V:2] d8 | 
[V:3] B6A2 | 
[V:4] z8 | 
[V:1] z4z2A2 | 
[V:2] e8 | 
[V:3] G4c4- | 
[V:4] z8 | 
[V:1] c4d4 | 
[V:2] f8- | 
[V:3] c2A2B4 | 
[V:4] z8 | 
[V:1] c3BA4- | 
[V:2] f8- | 
[V:3] c8 | 
[V:4] F,8 | 
[V:1] A2GFF4 | 
[V:2] f8 | 
[V:3] z2F2A4 | 
[V:4] D,8 | 
[V:1] G6A2 | 
[V:2] e8 | 
[V:3] c4c4 | 
[V:4] E,4C,4 | 
[V:1] z2B2BAGF | 
[V:2] d4B4 | 
[V:3] B3cd4 | 
[V:4] D,8 | 
[V:1] G2A2G3E | 
[V:2] c4c4 | 
[V:3] e6c2 | 
[V:4] C,8- | 
[V:1] E8 | 
[V:2] z2c2A4 | 
[V:3] c4z2c2 | 
[V:4] C,8 | 
[V:1] z2F2B4- | 
[V:2] B3AG2F2 | 
[V:3] d8- | 
[V:4] B,,8- | 
[V:1] B2AGFEDC | 
[V:2] F3EF2G2 | 
[V:3] d8 | 
[V:4] B,,8- | 
[V:1] D3EF2D2 | 
[V:2] F8 | 
[V:3] B8 | 
[V:4] B,,8 | 
[V:1] E3FG2E2 | 
[V:2] z2c2c2c2 | 
[V:3] G8 | 
[V:4] C,8 | 
[V:1] F3GA2F2 | 
[V:2] F8 | 
[V:3] z2B2A4 | 
[V:4] D,8 | 
[V:1] A2B3AGF | 
[V:2] c2d2B4 | 
[V:3] F8 | 
[V:4] z2B,,2D,4 | 
[V:1] E2F4E2 | 
[V:2] c8 | 
[V:3] G8 | 
[V:4] C,8 | 
[V:1] F8 | 
[V:2] A4d4 | 
[V:3] F4z2B2 | 
[V:4] D,8 | 
[V:1] z2A2c3d | 
[V:2] c8- | 
[V:3] A8- | 
[V:4] F,8 | 
[V:1] c2B2A3G | 
[V:2] c8 | 
[V:3] A8- | 
[V:4] F,8- | 
[V:1] F8 | 
[V:2] z2c4d2 | 
[V:3] A8 | 
[V:4] F,8 | 
[V:1] G8 | 
[V:2] e8 | 
[V:3] G8 | 
[V:4] E,8 | 
[V:1] A8 | 
[V:2] f6ed | 
[V:3] F8 | 
[V:4] D,8 | 
[V:1] z8 | 
[V:2] e2g4fe | 
[V:3] z2_E2G4 | 
[V:4] C,8 | 
[V:1] B8 | 
[V:2] d8- | 
[V:3] B4F2G2- | 
[V:4] B,,8- | 
[V:1] B6A2 | 
[V:2] d8 | 
[V:3] G2F2F4 | 
[V:4] B,,8 | 
[V:1] G2F2E3F | 
[V:2] !fermata!c8- | 
[V:3] E3FG2A2 | 
[V:4] C,8 | 
[V:1] G2F4E2 | 
[V:2] c8- | 
[V:3] G8 | 
[V:4] C,8 | 
[V:1] F8 |]  
[V:2] c8 |]  
[V:3] F8 |]  
[V:4] !fermata!F,,8 |]  



